public/images/app_icons/disclaimer.svg

<svg height="368pt" viewBox="-32 0 368 368" width="368pt" xmlns="http://www.w3.org/2000/svg"><path d="m40 8c-17.679688 0-32 14.320312-32 32v320h224v-320c0-17.679688 14.320312-32 32-32zm144 160h-128v-96h128zm0 0" fill="#cce4ff"/><g fill="#007aff"><path d="m8 368h224c4.425781 0 8-3.574219 8-8v-56h56c4.425781 0 8-3.574219 8-8v-256c0-22.054688-17.945312-40-40-40h-224c-22.054688 0-40 17.945312-40 40v320c0 4.425781 3.574219 8 8 8zm232-328c0-13.230469 10.769531-24 24-24s24 10.769531 24 24v248h-48zm-224 0c0-13.230469 10.769531-24 24-24h192.015625c-5.03125 6.6875-8.015625 15-8.015625 24v312h-208zm0 0"/><path d="m184 64h-128c-4.425781 0-8 3.585938-8 8v96c0 4.414062 3.574219 8 8 8h128c4.425781 0 8-3.585938 8-8v-96c0-4.414062-3.574219-8-8-8zm-8 96h-112v-80h112zm0 0"/><path d="m184 208h-128c-4.425781 0-8 3.574219-8 8s3.574219 8 8 8h128c4.425781 0 8-3.574219 8-8s-3.574219-8-8-8zm0 0"/><path d="m184 256h-128c-4.425781 0-8 3.574219-8 8s3.574219 8 8 8h128c4.425781 0 8-3.574219 8-8s-3.574219-8-8-8zm0 0"/><path d="m184 304h-128c-4.425781 0-8 3.574219-8 8s3.574219 8 8 8h128c4.425781 0 8-3.574219 8-8s-3.574219-8-8-8zm0 0"/></g></svg>

<svg xmlns="http://www.w3.org/2000/svg" viewBox="-32 0 368 368"><path fill="#cce4ff" d="M40 8C22 8 8 22 8 40v320h224V40c0-18 14-32 32-32zm144 160H56V72h128zm0 0"/><g fill="#007aff"><path d="M8 368h224c4 0 8-4 8-8v-56h56c4 0 8-4 8-8V40c0-22-18-40-40-40H40C18 0 0 18 0 40v320c0 4 4 8 8 8M240 40a24 24 0 0 1 48 0v248h-48zM16 40c0-13 11-24 24-24h192c-5 7-8 15-8 24v312H16zm0 0"/><path d="M184 64H56c-4 0-8 4-8 8v96c0 4 4 8 8 8h128c4 0 8-4 8-8V72c0-4-4-8-8-8m-8 96H64V80h112zm8 48H56a8 8 0 1 0 0 16h128a8 8 0 1 0 0-16m0 48H56a8 8 0 1 0 0 16h128a8 8 0 1 0 0-16m0 48H56a8 8 0 1 0 0 16h128a8 8 0 1 0 0-16m0 0"/></g></svg>
